**kern
*clefG1
*k[f#]
*M5/4
=1-
1cc-
4cc-
=2
8cc#
(4cc#
4cc# 4a 4f#)
2cc#
16dd
16cc#
=3
8cc
8b
4.a
8b
2cc
=4
4dd
1cc
=5
8b
16cc
4cc
16cc
2b
4b
=6
8a
16a
4g-
8a- 8f# 8d
16r
4g#
(16f-
4f-)
(16e 16c
=7
4d 4B
16c 16A)
4B
2c
8B
16A
=8
1A
8B-
8A
=9
1G
4A#
=10
16G
2ggg
2ggg
8r
16G
=11
*-